X: 51
T:Llawenydd ap Tomas
T:The Joy of ap Thomas
M:2/4
L:1/16
Q:100
S:Cadw Twmpath Collection
A:Wales
Z:brian_martin12345@yahoo.com
K:G
g2f2 g2b2|agfe dcBA|G2F2 G2B2|ABcd e2f2|
g2f2 gab2|agfe dcBA|GAB2 cde2|d2f2g4:||
agfe dedc|Bdce d2g2|agfe dcBA|GABc d2^d2|
eceg dBdg|cAca gGBd|efge dcBA|G2f2g4:||
